X:138
T:Westwood Reel
R:Reel
C:Bill Skeoch
Z:H.I.S.C.D. Happiness is Scottish Country Dancing BRG LP 017
Z:ABC notation by Robin Shaylor, 2004
M:C
L:1/8
K:D
FG |\
"D" AAAA .B2 A2 | .A2 d2 Tf4 | AAAA "D#" B2 A2 | "A7'" {B}c4 c4 |!
"A7" c2ce "Em7" B2 Bd | "A7" .c2 B2 TB4 | "A7" EFGA "A7" .B2c2 | "D" B2 A2  F2 FG |!
"D" AAAA .B2 A2 | .A2 d2 Tf4 | "B7" gggg f2 ^d2 | "Em" B4 "Em7" B4 |!
"A7" cccc B2 A2 |  g2 e2 "E7" B4 | "A" ceBd "A" c2 A2 | "D" {c}d4 d2FG |!
||"D" AFBF .A2 [F2A2] | AFBF TA2 FG | AFBF "D" .A2 d2 | "A7/E" Tc4 c4 |!
|"A7" ceBd  "Em7" c2 B2 | "A7" E2 G2 "Em7" {A} B4| "A7" cBAG F2 E2| "D"DF B2 A2 FG|!
|:"D" AFBF .A2 [F2A2] | AFBF TA2 FG | AFBF "D" .A2 d2 |"G" f2 e2 "Em7" B3 d|!
"A7" c2ce "Em7" B2 Bd | "A7" .c2 B2 "Em7" G2 E2| "A7" CDEF "A7" GABc|1"D" {c} d4 d2 FG :||2 "D"{c}d6||
